html-practice-pages/web-app-images/home.svg

<svg xmlns="http://www.w3.org/2000/svg" viewBox="0 0 640 640"><!--!Font Awesome Free 7.2.0 by @fontawesome - https://fontawesome.com License - https://fontawesome.com/license/free Copyright 2026 Fonticons, Inc.--><path d="M304 70.1c9.1-8.2 22.9-8.2 32 0l232 208c9.9 8.8 10.7 24 1.8 33.9-8.9 9.9-24 10.7-33.9 1.8l-8-7.2v205.3c0 35.3-28.7 64-64 64h-288c-35.3 0-64-28.7-64-64V306.6l-8 7.2c-9.9 8.8-25 8-33.9-1.8-8.9-9.8-8-25 1.8-33.9L304 70.1zm16 50.1L160 263.7V512c0 8.8 7.2 16 16 16h48V424c0-39.8 32.2-72 72-72h48c39.8 0 72 32.2 72 72v104h48c8.8 0 16-7.2 16-16V263.7L320 120.3zM272 528h96V424c0-13.3-10.7-24-24-24h-48c-13.3 0-24 10.7-24 24v104z"/></svg>

<svg xmlns="http://www.w3.org/2000/svg" viewBox="0 0 640 640"><!--!Font Awesome Free 7.2.0 by @fontawesome - https://fontawesome.com License - https://fontawesome.com/license/free Copyright 2026 Fonticons, Inc.--><path d="M304 70.1C313.1 61.9 326.9 61.9 336 70.1L568 278.1C577.9 286.9 578.7 302.1 569.8 312C560.9 321.9 545.8 322.7 535.9 313.8L527.9 306.6L527.9 511.9C527.9 547.2 499.2 575.9 463.9 575.9L175.9 575.9C140.6 575.9 111.9 547.2 111.9 511.9L111.9 306.6L103.9 313.8C94 322.6 78.9 321.8 70 312C61.1 302.2 62 287 71.8 278.1L304 70.1zM320 120.2L160 263.7L160 512C160 520.8 167.2 528 176 528L224 528L224 424C224 384.2 256.2 352 296 352L344 352C383.8 352 416 384.2 416 424L416 528L464 528C472.8 528 480 520.8 480 512L480 263.7L320 120.3zM272 528L368 528L368 424C368 410.7 357.3 400 344 400L296 400C282.7 400 272 410.7 272 424L272 528z"/></svg>
